configs/network-icons/filecoin-icon-dark.svg

<svg width="30" height="30" viewBox="0 0 30 30" fill="none" xmlns="http://www.w3.org/2000/svg">
<g clip-path="url(#clip0_11003_18175)">
<path fill-rule="evenodd" clip-rule="evenodd" d="M14.9997 29.9984C6.74986 29.9984 0 23.2486 0 14.9237C0.0749985 6.67389 6.74986 -0.0759664 15.0747 -0.000967909C23.3245 0.0740305 29.9994 6.74889 29.9994 15.1487C29.9244 23.3236 23.2495 29.9984 14.9997 29.9984Z" fill="#0090FF"/>
<path fill-rule="evenodd" clip-rule="evenodd" d="M16.4246 13.1988L15.9746 15.5988L20.2495 16.1988L19.9496 17.3238L15.7496 16.7238C15.4496 17.6988 15.2997 18.7487 14.9247 19.6487C14.5497 20.6987 14.1747 21.7487 13.7247 22.7236C13.1247 23.9986 12.0747 24.8986 10.6497 25.1236C9.82476 25.2736 8.92478 25.1986 8.2498 24.6736C8.0248 24.5236 7.7998 24.2236 7.7998 23.9986C7.7998 23.6986 7.9498 23.3236 8.1748 23.1736C8.32479 23.0986 8.69979 23.1736 8.92478 23.2486C9.14978 23.4736 9.37477 23.7736 9.52477 24.0736C9.97476 24.6736 10.5747 24.7486 11.1747 24.2986C11.8497 23.6986 12.2247 22.8736 12.4497 22.0487C12.8997 20.2487 13.3497 18.5237 13.7247 16.7238V16.4238L9.74976 15.8238L9.89976 14.6988L14.0247 15.2988L14.5497 12.9739L10.2748 12.2989L10.4248 11.0989L14.8497 11.6989C14.9997 11.2489 15.0747 10.8739 15.2247 10.4989C15.5996 9.14893 15.9746 7.79896 16.8746 6.59898C17.7746 5.39901 18.8246 4.64902 20.3995 4.72402C21.0745 4.72402 21.7495 4.94902 22.1995 5.47401C22.2745 5.549 22.4245 5.699 22.4245 5.849C22.4245 6.14899 22.4245 6.52398 22.1995 6.74898C21.8995 6.97397 21.5245 6.89898 21.2245 6.59898C20.9995 6.37399 20.8495 6.14899 20.6245 5.924C20.1746 5.32401 19.4996 5.24901 18.9746 5.774C18.5996 6.14899 18.2246 6.67398 17.9996 7.19897C17.4746 8.77394 17.0996 10.4239 16.5746 12.0739L20.6995 12.6739L20.3995 13.7988L16.4246 13.1988Z" fill="white"/>
</g>
<defs>
<clipPath id="clip0_11003_18175">
<rect width="30" height="30" fill="white"/>
</clipPath>
</defs>
</svg>

<svg xmlns="http://www.w3.org/2000/svg" fill="none" viewBox="0 0 30 30">
  <g fill-rule="evenodd" clip-path="url(#filecoin-icon-dark_svg__a)" clip-rule="evenodd">
    <path fill="#0090FF" d="M15 29.998c-8.25 0-15-6.75-15-15.074.075-8.25 6.75-15 15.075-14.925 8.25.075 14.924 6.75 14.924 15.15-.075 8.175-6.75 14.85-15 14.85Z"/>
    <path fill="#fff" d="m16.425 13.199-.45 2.4 4.275.6-.3 1.125-4.2-.6c-.3.975-.45 2.025-.825 2.925-.375 1.05-.75 2.1-1.2 3.075-.6 1.275-1.65 2.175-3.075 2.4-.825.15-1.725.075-2.4-.45-.225-.15-.45-.45-.45-.675 0-.3.15-.675.375-.825.15-.075.525 0 .75.075.225.225.45.525.6.825.45.6 1.05.675 1.65.225.675-.6 1.05-1.425 1.275-2.25.45-1.8.9-3.525 1.275-5.325v-.3l-3.975-.6.15-1.125 4.125.6.525-2.325-4.275-.675.15-1.2 4.425.6c.15-.45.225-.825.375-1.2.375-1.35.75-2.7 1.65-3.9.9-1.2 1.95-1.95 3.524-1.875.675 0 1.35.225 1.8.75.075.075.225.225.225.375 0 .3 0 .675-.224.9-.3.225-.675.15-.976-.15-.224-.225-.375-.45-.6-.675-.45-.6-1.124-.675-1.65-.15-.374.375-.75.9-.974 1.425-.525 1.575-.9 3.225-1.425 4.875l4.125.6-.3 1.125-3.975-.6Z"/>
  </g>
  <defs>
    <clipPath id="filecoin-icon-dark_svg__a">
      <path fill="#fff" d="M0 0h30v30H0z"/>
    </clipPath>
  </defs>
</svg>
